svg/caret-down-circle.svg

<svg xmlns="http://www.w3.org/2000/svg" viewBox="0 0 64 64" enable-background="new 0 0 64 64"><style type="text/css">.st0{fill:#333333;}</style><title>caret-down-circle</title><desc>Created with Sketch.</desc><path class="st0" d="M32 0c-17.7 0-32 14.3-32 32s14.3 32 32 32 32-14.3 32-32-14.3-32-32-32zm0 58c-14.4 0-26-11.6-26-26s11.6-26 26-26 26 11.6 26 26-11.6 26-26 26zM44.9 27.1h-25.8c-1.1 0-1.4.7-.7 1.5l12.9 14.2c.4.4 1 .4 1.3 0l12.9-14.2c.8-.8.5-1.5-.6-1.5z"/></svg>

<?xml version="1.0" encoding="utf-8"?>
<!-- Generator: Adobe Illustrator 21.0.0, SVG Export Plug-In . SVG Version: 6.00 Build 0)  -->
<svg version="1.1" id="Layer_1" xmlns="http://www.w3.org/2000/svg" xmlns:xlink="http://www.w3.org/1999/xlink" x="0px" y="0px"
	 viewBox="0 0 64 64" style="enable-background:new 0 0 64 64;" xml:space="preserve">
<style type="text/css">
	.st0{fill:#333333;}
</style>
<title>caret-down-circle</title>
<desc>Created with Sketch.</desc>
<g>
	<path class="st0" d="M32,0C14.3,0,0,14.3,0,32s14.3,32,32,32s32-14.3,32-32S49.7,0,32,0z M32,58C17.6,58,6,46.4,6,32
		C6,17.6,17.6,6,32,6s26,11.6,26,26C58,46.4,46.4,58,32,58z"/>
	<path class="st0" d="M44.9,27.1H19.1c-1.1,0-1.4,0.7-0.7,1.5l12.9,14.2c0.4,0.4,1,0.4,1.3,0l12.9-14.2C46.3,27.8,46,27.1,44.9,27.1
		z"/>
</g>
</svg>
